!!!OTL: 664. Lebensmuth.
!!!ARE: Europa, Mitteleuropa, Deutschland
!!!SCT: B0664
!!!TXL: @@DE
!!!YEM: Copyright 1995, estate of Helmut Schaffrath.
**kern	**text	**text
*ICvox	*	*
*Ivox	*	*
*clefG2	*	*
*M4/4	*	*
*met(c)	*	*
*k[f#c#g#]	*	*
*A:	*	*
=1	=1	=1
!LO:TX:a:t=Ruhig.	!	!
{4a	1._Un-	2._A-
4a	-ſer	-ber
8aL	Le-	un-
8g#J	.	.
4g#	-ben	-er-
=2	=2	=2
4b	gleicht	-war-
4b	der	-tet
8bL	Rei-	ſchwin-
8aJ	.	.
4a}	-ſe	-det
=3	=3	=3
{4cc#	ei-	von
4cc#	-nes	uns
4.b	Pil-	Nacht
8a	-gers	und
=4	=4	=4
4g#	in	Dunkel-
4f#	der	.
2e}	Nacht.	-heit,
=5	=5	=5
{4e	Je-	und
8f#L	-der	der
8g#J	.	.
4a	hat	Schmerʒ-
4e	auf	-ge-
=6	=6	=6
4.b	ſei-	-drück-
8b	-nem	-te
8cc#/L	Glei-	fin-
8aJ	.	.
4a}	-ſe	-det
=7	=7	=7
{4f#	vie-	Lin-
4b	-les,	-de-
4e	was	-rung
4a	ihm	in
=8	=8	=8
8cc#/L	Kum-	ſei-
8bJ	.	.
8f#L	-mer	-nem
8g#J	.	.
4a	macht,	Leid.
4r}	.	.
==	==	==
!!!AGN: Wander -, Moral - Lied, Vergaenglichkeit
!!!GTL: Didaktische Lieder: Betrachtungen, Vergleiche und Moralisationen
!!!ONB: ESAC (Essen Associative Code) Database: BOEHME
!!!AMT: simple quadruple
!!!AIN: vox
!!!EED: Helmut Schaffrath
!!!EEV: 1.0
!!Mel. aus A. Greßlers Anthologie. 1836.
!!@@COMMENT:"Verfaſſer ungekannt. Text und Melodie in Greßlers Anthologie. Text auch im Liederlexikon.
!!Leipʒig 1847, mit einigen Worten anders."
!!@@END:
!!!URL-scan: https://archive.org/details/BoehmeVtLieder1895/page/n517/mode/2up
!!!ENC: Anna Maria Matuszewska
!!!EEV: 2024/16/07
*-	*-	*-
